svgs/simplemusicplayer.svg

<svg xmlns="http://www.w3.org/2000/svg" viewBox="0 0 192 192"><path d="M96 16.5c-21.069 0-41.297 7.757-56.199 21.551C24.898 51.845 16.512 70.575 16.5 90.088v45.376c.007 7.752 2.689 15.302 7.654 21.542 4.964 6.24 11.955 10.85 19.946 13.153.001 1.416.608 2.775 1.69 3.777 1.081 1.001 2.548 1.564 4.077 1.564H61.4a6.092 6.092 0 0 0 2.893-.703 5.533 5.533 0 0 0 2.115-1.959 4.997 4.997 0 0 0 .759-2.679v-69.308a5 5 0 0 0-.759-2.679 5.523 5.523 0 0 0-2.115-1.958 6.068 6.068 0 0 0-2.893-.703H49.867a6.13 6.13 0 0 0-2.883.715 5.572 5.572 0 0 0-2.111 1.955 5.043 5.043 0 0 0-.773 2.67c-5.444 1.567-10.45 4.225-14.658 7.787v-18.55c-.025-10.731 3.012-21.281 8.804-30.577l7.219 4.811a5.903 5.903 0 0 0 3.07.911 5.928 5.928 0 0 0 3.102-.81 5.31 5.31 0 0 0 2.104-2.262c6.397-8.342 15.515-14.571 26.011-17.768a55.655 55.655 0 0 1 32.32 0c10.496 3.197 19.614 9.426 26.011 17.768a5.31 5.31 0 0 0 2.104 2.262 5.928 5.928 0 0 0 3.102.81 5.906 5.906 0 0 0 3.07-.911l7.219-4.811c5.792 9.296 8.829 19.846 8.804 30.577v18.469c-4.209-3.562-9.214-6.221-14.659-7.787 0-.938-.266-1.859-.772-2.67a5.564 5.564 0 0 0-2.111-1.955 6.12 6.12 0 0 0-2.883-.716H130.6a6.092 6.092 0 0 0-2.893.703 5.533 5.533 0 0 0-2.115 1.959 4.997 4.997 0 0 0-.759 2.679v69.308a5 5 0 0 0 .759 2.679 5.53 5.53 0 0 0 2.115 1.958c.88.468 1.878.711 2.893.703h11.533a6.13 6.13 0 0 0 2.883-.715 5.572 5.572 0 0 0 2.111-1.955 5.043 5.043 0 0 0 .773-2.67c7.991-2.303 14.982-6.913 19.946-13.154 4.965-6.24 7.647-13.79 7.654-21.541V90.088c-.012-19.513-8.398-38.243-23.301-52.037C137.297 24.257 117.069 16.5 96 16.5Zm-51.9 84.27v69.389m103.8-69.389v69.389" fill="none" stroke="#000" stroke-width="12" stroke-linecap="round" stroke-linejoin="round"/><path d="M45.641 49.808c6.247-6.701 13.977-12.082 22.666-15.774C76.995 30.341 86.44 28.421 96 28.405c9.56.016 19.005 1.936 27.693 5.629 8.689 3.692 16.419 9.073 22.666 15.774" fill="none" stroke="#000" stroke-width="8" stroke-linecap="round" stroke-linejoin="round"/></svg>

<svg
    xmlns="http://www.w3.org/2000/svg"
    viewBox="0 0 192 192"
    id="vector">
    <path
        id="path"
        d="M 96 16.5 C 74.931 16.5 54.703 24.257 39.801 38.051 C 24.898 51.845 16.512 70.575 16.5 90.088 L 16.5 135.464 C 16.507 143.216 19.189 150.766 24.154 157.006 C 29.118 163.246 36.109 167.856 44.1 170.159 C 44.101 171.575 44.708 172.934 45.79 173.936 C 46.871 174.937 48.338 175.5 49.867 175.5 L 61.4 175.5 C 62.415 175.507 63.413 175.264 64.293 174.797 C 65.173 174.329 65.903 173.653 66.408 172.838 C 66.913 172.023 67.175 171.099 67.167 170.159 L 67.167 100.851 C 67.175 99.912 66.913 98.987 66.408 98.172 C 65.903 97.357 65.173 96.681 64.293 96.214 C 63.413 95.746 62.415 95.503 61.4 95.511 L 49.867 95.511 C 48.855 95.511 47.86 95.758 46.984 96.226 C 46.107 96.695 45.379 97.369 44.873 98.181 C 44.367 98.993 44.1 99.914 44.1 100.851 C 38.656 102.418 33.65 105.076 29.442 108.638 L 29.442 90.088 C 29.417 79.357 32.454 68.807 38.246 59.511 L 45.465 64.322 C 46.369 64.898 47.437 65.215 48.535 65.233 C 49.632 65.251 50.711 64.969 51.637 64.423 C 52.563 63.877 53.295 63.09 53.741 62.161 C 60.138 53.819 69.256 47.59 79.752 44.393 C 90.247 41.196 101.577 41.196 112.072 44.393 C 122.568 47.59 131.686 53.819 138.083 62.161 C 138.529 63.09 139.261 63.877 140.187 64.423 C 141.113 64.969 142.192 65.251 143.289 65.233 C 144.387 65.215 145.454 64.898 146.359 64.322 L 153.578 59.511 C 159.37 68.807 162.407 79.357 162.382 90.088 L 162.382 108.557 C 158.173 104.995 153.168 102.336 147.723 100.77 C 147.723 99.832 147.457 98.911 146.951 98.1 C 146.445 97.288 145.717 96.613 144.84 96.145 C 143.964 95.676 142.969 95.429 141.957 95.429 L 130.6 95.429 C 129.585 95.422 128.587 95.665 127.707 96.132 C 126.827 96.6 126.097 97.276 125.592 98.091 C 125.087 98.906 124.825 99.83 124.833 100.77 L 124.833 170.078 C 124.825 171.017 125.087 171.942 125.592 172.757 C 126.097 173.571 126.827 174.248 127.707 174.715 C 128.587 175.183 129.585 175.426 130.6 175.418 L 142.133 175.418 C 143.145 175.418 144.14 175.171 145.016 174.703 C 145.893 174.234 146.621 173.56 147.127 172.748 C 147.633 171.936 147.9 171.015 147.9 170.078 C 155.891 167.775 162.882 163.165 167.846 156.924 C 172.811 150.684 175.493 143.134 175.5 135.383 L 175.5 90.088 C 175.488 70.575 167.102 51.845 152.199 38.051 C 137.297 24.257 117.069 16.5 96 16.5 Z M 44.1 100.77 L 44.1 170.159 M 147.9 100.77 L 147.9 170.159"
        fill="none"
        stroke="#000000"
        stroke-width="12"
        stroke-linecap="round"
        stroke-linejoin="round"/>
    <path
        id="path_1"
        d="M 45.641 49.808 C 51.888 43.107 59.618 37.726 68.307 34.034 C 76.995 30.341 86.44 28.421 96 28.405 C 105.56 28.421 115.005 30.341 123.693 34.034 C 132.382 37.726 140.112 43.107 146.359 49.808"
        fill="none"
        stroke="#000000"
        stroke-width="8"
        stroke-linecap="round"
        stroke-linejoin="round"/>
</svg>
